web/packages/design/src/ResourceIcon/assets/clickhouse-dark.svg

<svg width="72" height="72" viewBox="0 0 72 72" fill="none" xmlns="http://www.w3.org/2000/svg">
<g clip-path="url(#clip0_7349_35924)">
<path d="M7.1583 0H0.841478C0.376743 0 0 0.376752 0 0.8415V71.1585C0 71.6232 0.376743 72 0.841478 72H7.1583C7.62303 72 7.99978 71.6232 7.99978 71.1585V0.8415C7.99978 0.376752 7.62303 0 7.1583 0Z" fill="#FCFF74"/>
<path d="M23.1593 0H16.8425C16.3777 0 16.001 0.376752 16.001 0.8415V71.1585C16.001 71.6232 16.3777 72 16.8425 72H23.1593C23.624 72 24.0008 71.6232 24.0008 71.1585V0.8415C24.0008 0.376752 23.624 0 23.1593 0Z" fill="#FCFF74"/>
<path d="M32.8415 0H39.1583C39.623 0 39.9998 0.376752 39.9998 0.8415V71.1585C39.9998 71.6232 39.623 72 39.1583 72H32.8415C32.3767 72 32 71.6232 32 71.1585V0.8415C32 0.376752 32.3767 0 32.8415 0Z" fill="#FCFF74"/>
<path d="M55.1563 0H48.8395C48.3748 0 47.998 0.376752 47.998 0.8415V71.1585C47.998 71.6232 48.3748 72 48.8395 72H55.1563C55.6211 72 55.9978 71.6232 55.9978 71.1585V0.8415C55.9978 0.376752 55.6211 0 55.1563 0Z" fill="#FCFF74"/>
<path d="M64.8415 28.0005H71.1583C71.623 28.0005 71.9998 28.3772 71.9998 28.842V43.159C71.9998 43.6238 71.623 44.0005 71.1583 44.0005H64.8415C64.3767 44.0005 64 43.6238 64 43.159V28.842C64 28.3772 64.3767 28.0005 64.8415 28.0005Z" fill="#FCFF74"/>
</g>
<defs>
<clipPath id="clip0_7349_35924">
<rect width="72" height="72" fill="white"/>
</clipPath>
</defs>
</svg>

<svg xmlns="http://www.w3.org/2000/svg" width="72" height="72" fill="none" viewBox="0 0 72 72"><g fill="#fcff74" clip-path="url(#a)"><path d="M7.158 0H.841A.84.84 0 0 0 0 .842v70.317c0 .464.377.841.841.841h6.317A.84.84 0 0 0 8 71.159V.84A.84.84 0 0 0 7.158 0M23.16 0h-6.317A.84.84 0 0 0 16 .842v70.317c0 .464.377.841.841.841h6.317a.84.84 0 0 0 .842-.841V.84a.84.84 0 0 0-.841-.84m9.683 0h6.316c.465 0 .842.377.842.842v70.317a.84.84 0 0 1-.842.841h-6.316a.84.84 0 0 1-.842-.841V.84c0-.464.377-.841.842-.841M55.156 0H48.84a.84.84 0 0 0-.842.842v70.317c0 .464.377.841.842.841h6.316a.84.84 0 0 0 .842-.841V.84a.84.84 0 0 0-.842-.84m9.686 28h6.316c.465 0 .842.377.842.842v14.317a.84.84 0 0 1-.842.842h-6.317a.84.84 0 0 1-.841-.842V28.842c0-.465.377-.841.841-.841"/></g><defs><clipPath id="a"><path fill="#fff" d="M0 0h72v72H0z"/></clipPath></defs></svg>
